X:1
T:Title
%%score { ( 1 3 ) | ( 2 4 ) }
L:1/8
Q:1/4=100
M:6/8
K:F
V:1 treble nm="Grand Piano"
V:3 treble 
V:2 bass 
V:4 bass 
V:1
 CDE FGA | c3 [FAc]2[K:bass] C, | cAG FGA | D6[K:bass] | DE^F GAB | d3 [GBd]2 D, | dBG DEG | %7
w: Florence~W.~Williams * * * * *|||||||
 C6[K:bass] | CDE[K:treble] FGA | c3 [FAc]2[K:bass] C, | cA^F DFA | G6[K:bass] | BAG BAG | %13
w: ||||||
 c3[K:bass] z3 | .F3 .F3 |[M:7/8] G-G-G- G3 z |[M:3/4] [Ec][Ec] [Ec][Ec] [Ec][EG] | %17
w: ||||
 [F_A]3 .[F=A]3 | [^Fd][Fd] [Fd][Fd] [Fd][FA] | [GB]6 | [EA][EG] [_E^F][=EG] [EB][Ed] | f3 F3 | %22
w: |||||
[M:13/16] FF[DFB][CFG][B,EG]3/2[Ec] |[M:3/4] F6 |] %24
w: ||
V:2
 .F,,2 C, [F,A,]2 C, | .F,,2 C, .[F,A,C]3 | .F,,2 C, [F,A,]2 C, | .B,,2 D, .G,3 | %4
 .G,,2 D, [G,B,]2 D, | .G,,2 D, .[G,B,D]3 | .C,,2 C, [E,B,]2 C, | .F,,3 .F,3 | %8
 .F,,2 C, [F,A,]2 C, | .F,,2 C, .[F,A,C]3 | .D,,2 D, [^F,C]2 D, | .G,,2 D, .G,3 | %12
 .C,,2 C, [E,B,]2 C, | .F,,3 .[F,A,CF]3 | [G,,D,]3 D,G,F, |[M:7/8] [F,D]3 E,3 z | %16
[M:3/4] [C,G,][C,G,] [C,G,][C,G,] [C,G,][C,C] | [F,=B,]3 .[F,C]3 | %18
 [D,A,][D,A,] [D,A,][D,A,] [D,A,][D,D] | [G,D]6 | [C,C][C,B,] [C,A,][C,B,] [C,G,][C,B,] | %21
 [F,A,F]3 [^C,_A,=B,]3 |[M:13/16] [C,A,C][D,A,D]G,,C,C,3/2[C,B,] |[M:3/4] [F,A,]6 |] %24
V:3
 x6 | x5[K:bass] x | x6 | z3[K:bass] B,2 D, | x6 | x6 | x6 | z3[K:bass] A,2 C, | x3[K:treble] x3 | %9
 x5[K:bass] x | x6 | z3[K:bass] B,2 D, | x6 | z2[K:bass] C, c2 C, | %14
 =B,-[B,-E][B,D] B,-[B,-E][B,D] |[M:7/8] z z2 C3 z |[M:3/4] x6 | x6 | x6 | x6 | x6 | x6 | %22
[M:13/16] x13/2 |[M:3/4] x6 |] %24
V:4
 x6 | x6 | x6 | x6 | x6 | x6 | x6 | x6 | x6 | x6 | x6 | x6 | x6 | x6 | z3 G,,3 | %15
[M:7/8] [C,B,]-[C,B,]-[C,B,]- [C,B,]3 z |[M:3/4] x6 | x6 | x6 | x6 | x6 | x6 |[M:13/16] x13/2 | %23
[M:3/4] x6 |] %24

